X: 10057
T: Dick Sullivan's Favourite
R: jig
M: 6/8
K: Gmajor
|:A|Bdc BdG|GBd gdc|B/c/dG BdG|A^GA c2 A|
B/c/dc BdB|GB/c/d g2 B|cac BgB|A^GA c2:|
|:e|dgf gdB|gaf g/a/ba|gag gdB|F/G/AB c2 e|
dgf gdB|gg/f/e dcB|cac BgB|A^GA c2:|
|:g|dBG G/A/Bc|dBG gfe|dBG GB/A/G|AF/G/A cde|
dB/A/G GB/c/d|gfe d2 B|cac BgB|AFD c2:|

